icons/dark/sass.svg

<svg width="16" height="16" viewBox="0 0 16 16" fill="none" xmlns="http://www.w3.org/2000/svg">
<path d="M8 1.33333C8.87548 1.33333 9.74238 1.50577 10.5512 1.8408C11.3601 2.17583 12.095 2.66689 12.714 3.28595C13.3331 3.90501 13.8242 4.63993 14.1592 5.44877C14.4942 6.25761 14.6667 7.12452 14.6667 8C14.6667 9.76811 13.9643 11.4638 12.714 12.714C11.4638 13.9643 9.76811 14.6667 8 14.6667C7.12452 14.6667 6.25761 14.4942 5.44878 14.1592C4.63994 13.8242 3.90501 13.3331 3.28595 12.714C2.03571 11.4638 1.33333 9.76811 1.33333 8C1.33333 6.23189 2.03571 4.53619 3.28595 3.28595C4.5362 2.03571 6.23189 1.33333 8 1.33333ZM6.66667 10.22C6.77333 10.58 6.76 10.9133 6.66667 11.22C6.66667 11.2533 6.64 11.2867 6.62667 11.3333C6.61333 11.3333 6.6 11.38 6.58 11.4133C6.50667 11.5733 6.4 11.7267 6.27333 11.86C5.88667 12.2867 5.33333 12.4467 5.11333 12.3133C4.86 12.1667 5 11.5667 5.44 11.0933C5.92 10.5867 6.61333 10.2533 6.61333 10.2533L6.66667 10.22ZM12.18 4.18666C11.88 3 9.91333 2.61333 8.06 3.27333C6.95333 3.66666 5.75333 4.28 4.89333 5.08666C3.87333 6.04666 3.70667 6.88 3.77333 7.22666C4 8.45333 5.69333 9.25999 6.38667 9.85333V9.86C6.18667 9.96 4.69333 10.7133 4.33333 11.4867C3.97333 12.3 4.4 12.8867 4.66667 12.9667C5.56 13.2067 6.46 12.7733 6.94 12.0467C7.40667 11.3533 7.37333 10.4533 7.16667 10C7.44667 9.93333 7.77333 9.9 8.18667 9.94666C9.36 10.0867 9.58667 10.8133 9.54 11.12C9.5 11.4267 9.25333 11.5933 9.17333 11.6467C9.09333 11.6933 9.06667 11.7133 9.07333 11.7533C9.08 11.8067 9.12 11.8067 9.18667 11.7933C9.28667 11.7733 9.80667 11.5467 9.82667 10.98C9.85333 10.26 9.16667 9.46 7.95333 9.48C7.45333 9.49333 7.14 9.53999 6.91333 9.62666L6.86 9.56666C6.10667 8.76666 4.72 8.2 4.78 7.12C4.8 6.72666 4.93333 5.7 7.44667 4.44666C9.5 3.42 11.1467 3.69999 11.4333 4.33333C11.84 5.22 10.5533 6.88 8.42 7.12C7.60667 7.21333 7.17333 6.89333 7.06667 6.78C6.95333 6.66666 6.94 6.64666 6.9 6.66666C6.82667 6.71333 6.87333 6.82 6.9 6.88666C6.96 7.05333 7.22667 7.33333 7.66667 7.49333C8.06 7.61999 9.02 7.69333 10.1733 7.24666C11.4667 6.74666 12.48 5.35333 12.18 4.18666Z" fill="#C5C5C5"/>
</svg>

<svg xmlns="http://www.w3.org/2000/svg" width="16" height="16" fill="none" xmlns:v="https://vecta.io/nano"><path d="M8 1.333c.875 0 1.742.172 2.551.507s1.544.826 2.163 1.445 1.11 1.354 1.445 2.163.508 1.676.508 2.551c0 1.768-.702 3.464-1.953 4.714S9.768 14.667 8 14.667c-.875 0-1.742-.173-2.551-.508s-1.544-.826-2.163-1.445C2.036 11.464 1.333 9.768 1.333 8s.702-3.464 1.953-4.714S6.232 1.333 8 1.333zM6.667 10.22a1.7 1.7 0 0 1 0 1c0 .033-.027.067-.04.113-.013 0-.027.047-.047.08-.073.16-.18.313-.307.447-.387.427-.94.587-1.16.453-.253-.147-.113-.747.327-1.22.48-.507 1.173-.84 1.173-.84l.053-.033zm5.513-6.033C11.88 3 9.913 2.613 8.06 3.273c-1.107.393-2.307 1.007-3.167 1.813-1.02.96-1.187 1.793-1.12 2.14C4 8.453 5.693 9.26 6.387 9.853v.007c-.2.1-1.693.853-2.053 1.627-.36.813.067 1.4.333 1.48.893.24 1.793-.193 2.273-.92.467-.693.433-1.593.227-2.047.28-.067.607-.1 1.02-.053 1.173.14 1.4.867 1.353 1.173-.04.307-.287.473-.367.527-.08.047-.107.067-.1.107.007.053.047.053.113.04.1-.02.62-.247.64-.813.027-.72-.66-1.52-1.873-1.5-.5.013-.813.06-1.04.147l-.053-.06c-.753-.8-2.14-1.367-2.08-2.447.02-.393.153-1.42 2.667-2.673 2.053-1.027 3.7-.747 3.987-.113.407.887-.88 2.547-3.013 2.787-.813.093-1.247-.227-1.353-.34-.113-.113-.127-.133-.167-.113-.073.047-.027.153 0 .22.06.167.327.447.767.607.393.127 1.353.2 2.507-.247 1.293-.5 2.307-1.893 2.007-3.06z" fill="#c5c5c5"/></svg>
